epam-assets/icon-sources/18/save.svg

<svg width="18" height="18" viewBox="0 0 18 18" fill="none" xmlns="http://www.w3.org/2000/svg">
<g id="18/save">
<path id="icon" d="M15.75 5.25V14.25C15.75 14.6625 15.6033 15.0157 15.3097 15.3097C15.0157 15.6033 14.6625 15.75 14.25 15.75H3.75C3.3375 15.75 2.98425 15.6033 2.69025 15.3097C2.39675 15.0157 2.25 14.6625 2.25 14.25V3.75C2.25 3.3375 2.39675 2.98425 2.69025 2.69025C2.98425 2.39675 3.3375 2.25 3.75 2.25H12.75L15.75 5.25ZM9 13.5C9.625 13.5 10.1562 13.2812 10.5938 12.8438C11.0312 12.4062 11.25 11.875 11.25 11.25C11.25 10.625 11.0312 10.0938 10.5938 9.65625C10.1562 9.21875 9.625 9 9 9C8.375 9 7.84375 9.21875 7.40625 9.65625C6.96875 10.0938 6.75 10.625 6.75 11.25C6.75 11.875 6.96875 12.4062 7.40625 12.8438C7.84375 13.2812 8.375 13.5 9 13.5ZM4.5 7.5H11.25V4.5H4.5V7.5Z" fill="#6C6F80"/>
</g>
</svg>

<svg xmlns="http://www.w3.org/2000/svg" width="18" height="18" fill="none" viewBox="0 0 18 18">
  <path fill="#6C6F80" d="M15.75 5.25v9c0 .412-.147.766-.44 1.06a1.45 1.45 0 0 1-1.06.44H3.75c-.413 0-.766-.147-1.06-.44a1.446 1.446 0 0 1-.44-1.06V3.75c0-.413.147-.766.44-1.06.294-.293.647-.44 1.06-.44h9l3 3ZM9 13.5a2.17 2.17 0 0 0 1.594-.656 2.17 2.17 0 0 0 .656-1.594 2.17 2.17 0 0 0-.656-1.594A2.17 2.17 0 0 0 9 9a2.17 2.17 0 0 0-1.594.656 2.17 2.17 0 0 0-.656 1.594c0 .625.219 1.156.656 1.594A2.17 2.17 0 0 0 9 13.5Zm-4.5-6h6.75v-3H4.5v3Z"/>
</svg>
